X: 42994
T: Willie's Auld Trews
R: strathspey
M: 4/4
K: Eminor
"Am"EAA"G"c B2 EB|"Am"c2 BA "G"BGGB|"Am"EAAc "C"B2 Ee|"C"dcBA "Em"GEED|
"Am"EAAc "Em"B2 EB|"Am"c2 BA "G"BGGB|"Am"EAAc "Em"B2 Ee|"C"dcBA "Em"GE E g|
"C"ecgc "G"dBgB|"Am"cAdc "Em"BGGg|"C"ecgc "G"dBgB|"Am"A/B/c BA "Em"GE E g|
"C"ecgc "G"dBgB|"Am"cAdc "Em"BGGg|"C"egfg "G"Bg B2|"Am"A/B/c BA "Em"GE E2|

